X: 2
T: Mother's Delight
R: reel
M: 4/4
L: 1/8
K: Edor
F|:G2 GF GFEF|GG BG AFDF |Eeed efgf|e2 ed BcdB
|e2 ed B2Bc|dedA FDDF|Eeed B2 Bc|d2 AF GEED:|
|:GBeB GE E2|FAdA FDDF|GBeB GEE2 |FEDF E2 EF |
|GBeB GE E2|FAdA FDDF|G2 GF GFEG| BGFG E2 EF:|


Tune 242	Setting 242

